X: 1
T: Rain In Slane, The
M: 3/4
L: 1/8
R: mazurka
K: Dmaj
|:A F>E | 
D2 D>F A>d | f2 d2 F2 | G2 G>A B>G | E3 e e>d | 
c2 c>d c>B |1 A2 A>B A>G | F2 F>D F>A | d3 :|
2 A2 A>B (3cBA | d2 A2 F2 | D3 ||
|: B A>d | 
f2 f>d A>d | f2 f>d A>d | g2 g>e c>B | A3 c B>A |
G2 G>A B>d | g2 g>d B>d | c2 c>A B>c | d3 :|
